data/providers/venice/logo-raw.svg

<svg width="326" height="366" viewBox="0 0 326 366" fill="none" xmlns="http://www.w3.org/2000/svg">
<path fill-rule="evenodd" clip-rule="evenodd" d="M105.481 245.984C99.4744 241.518 92.2244 237.777 84.2074 235.504C76.1903 233.231 67.406 232.427 58.8167 233.38C50.2272 234.332 41.8327 237.042 34.5086 241.017C27.1847 244.991 20.931 250.231 16.0487 255.905C11.1531 261.567 6.88803 268.522 4.0314 276.35C1.17477 284.178 -0.273403 292.879 0.0448796 301.515C0.36299 310.152 2.44756 318.723 5.87231 326.319C9.29724 333.916 14.0625 340.538 19.3617 345.825C24.6482 351.124 31.2704 355.889 38.867 359.314C46.4637 362.739 55.0349 364.823 63.671 365.142C72.3073 365.46 81.0085 364.012 88.8366 361.155C96.6647 358.298 103.62 354.033 109.282 349.138C114.956 344.256 120.195 338.002 124.17 330.678C128.144 323.354 130.854 314.959 131.807 306.37C132.76 297.781 131.956 288.996 129.683 280.979C127.41 272.962 123.668 265.712 119.203 259.705L133.953 244.954L144.69 255.691H150.789L158.149 248.331V242.233L147.412 231.496L163 215.908L178.588 231.496L167.851 242.233V248.331L175.211 255.691H181.31L192.047 244.954L206.797 259.705C202.332 265.712 198.59 272.962 196.317 280.979C194.044 288.996 193.24 297.781 194.193 306.37C195.146 314.959 197.856 323.354 201.83 330.678C205.805 338.002 211.044 344.256 216.718 349.138C222.38 354.033 229.335 358.298 237.163 361.155C244.991 364.012 253.693 365.46 262.329 365.142C270.965 364.823 279.536 362.739 287.133 359.314C294.73 355.889 301.352 351.124 306.638 345.825C311.937 340.538 316.703 333.916 320.128 326.319C323.552 318.723 325.637 310.152 325.955 301.515C326.273 292.879 324.825 284.178 321.969 276.35C319.112 268.522 314.847 261.567 309.951 255.905C305.069 250.231 298.815 244.991 291.491 241.017C284.167 237.042 275.773 234.332 267.183 233.38C258.594 232.427 249.81 233.231 241.793 235.504C233.776 237.777 226.526 241.518 220.519 245.984L206.042 231.484L216.773 220.753V214.655L209.151 207.032H203.052L192.315 217.769L176.721 202.186L258.473 120.434L291.567 153.528V119.095H326L292.907 86.0012L326 52.9077V46.8095L318.377 39.1865H312.279L163 188.465L13.7212 39.1865H7.62295L0 46.8095V52.9077L33.0934 86.0012L0 119.095H34.4331V153.528L67.5263 120.434L149.279 202.186L133.685 217.769L122.948 207.032H116.849L109.226 214.655V220.753L119.958 231.484L105.481 245.984ZM238.144 321.715C234.778 328.62 235.477 338.188 239.811 344.531C243.793 351.1 252.216 355.693 259.895 355.484C267.574 355.693 275.997 351.1 279.979 344.531C284.313 338.188 285.012 328.62 281.646 321.715L282.484 320.812C289.389 324.196 298.971 323.511 305.324 319.178C311.904 315.2 316.508 306.768 316.297 299.081C316.508 291.395 311.904 282.963 305.324 278.984C298.971 274.652 289.389 273.966 282.484 277.351L281.646 276.448C285.012 269.543 284.313 259.974 279.979 253.632C275.997 247.063 267.574 242.469 259.895 242.679C252.216 242.469 243.793 247.063 239.811 253.632C235.477 259.974 234.778 269.543 238.144 276.448L237.306 277.351C230.401 273.966 220.818 274.652 214.466 278.984C207.886 282.963 203.282 291.395 203.492 299.081C203.282 306.768 207.886 315.2 214.466 319.178C220.818 323.511 230.401 324.196 237.306 320.812L238.144 321.715ZM86.1857 344.531C90.52 338.188 91.2191 328.62 87.8528 321.715L88.6913 320.812C95.5956 324.196 105.178 323.511 111.531 319.178C118.11 315.2 122.715 306.768 122.504 299.081C122.715 291.395 118.11 282.963 111.531 278.984C105.178 274.652 95.5956 273.966 88.6913 277.351L87.8528 276.448C91.2191 269.543 90.52 259.974 86.1857 253.632C82.2037 247.063 73.7808 242.469 66.1018 242.679C58.423 242.469 50.0001 247.063 46.0181 253.632C41.6839 259.974 40.9847 269.543 44.351 276.448L43.5126 277.351C36.6082 273.966 27.0255 274.652 20.6731 278.984C14.0932 282.963 9.48904 291.395 9.69934 299.081C9.48904 306.768 14.0932 315.2 20.6731 319.178C27.0255 323.511 36.6082 324.196 43.5126 320.812L44.351 321.715C40.9847 328.62 41.6839 338.188 46.0181 344.531C50.0001 351.1 58.423 355.693 66.1018 355.484C73.7808 355.693 82.2037 351.1 86.1857 344.531Z" fill="currentColor"/>
<path fill-rule="evenodd" clip-rule="evenodd" d="M162.891 39.1864L202.078 0L221.482 19.4047V84.8147L167.742 138.555H158.04L104.3 84.8147V19.4047L123.705 0L162.891 39.1864ZM123.705 13.7213L158.04 48.0567V111.112L123.705 76.7773V13.7213ZM167.744 48.0567L202.079 13.7213V76.7773L167.744 111.112V48.0567Z" fill="currentColor"/>
</svg>

<svg xmlns="http://www.w3.org/2000/svg" width="96" height="96" fill="none" viewBox="0 0 326 366"><path fill="#d30" fill-rule="evenodd" d="M105.481 245.984a66.1 66.1 0 0 0-21.274-10.48c-8.017-2.273-16.801-3.077-25.39-2.124s-16.984 3.662-24.308 7.637a66.1 66.1 0 0 0-18.46 14.888A66.2 66.2 0 0 0 4.03 276.35c-2.856 7.828-4.304 16.529-3.986 25.165.318 8.637 2.403 17.208 5.827 24.804a66.2 66.2 0 0 0 13.49 19.506 66.2 66.2 0 0 0 19.505 13.489c7.597 3.425 16.168 5.509 24.804 5.828s17.338-1.13 25.166-3.987a66.2 66.2 0 0 0 20.445-12.017 66.1 66.1 0 0 0 14.888-18.46c3.974-7.324 6.684-15.719 7.637-24.308s.149-17.374-2.124-25.391a66.2 66.2 0 0 0-10.48-21.274l14.75-14.751 10.737 10.737h6.099l7.36-7.36v-6.098l-10.737-10.737L163 215.908l15.588 15.588-10.737 10.737v6.098l7.36 7.36h6.099l10.737-10.737 14.75 14.751a66.2 66.2 0 0 0-10.48 21.274c-2.273 8.017-3.077 16.802-2.124 25.391s3.663 16.984 7.637 24.308a66.1 66.1 0 0 0 14.888 18.46 66.2 66.2 0 0 0 20.445 12.017c7.828 2.857 16.53 4.305 25.166 3.987 8.636-.319 17.207-2.403 24.804-5.828a66.1 66.1 0 0 0 19.505-13.489 66.2 66.2 0 0 0 13.49-19.506c3.424-7.596 5.509-16.167 5.827-24.804s-1.13-17.337-3.986-25.165a66.126 66.126 0 0 0-30.478-35.333c-7.324-3.975-15.718-6.685-24.308-7.637-8.589-.953-17.373-.149-25.39 2.124a66.1 66.1 0 0 0-21.274 10.48l-14.477-14.5 10.732-10.731v-6.098l-7.623-7.623h-6.099l-10.737 10.737-15.594-15.583 81.752-81.752 33.094 33.094v-34.433H326l-33.093-33.094L326 52.908v-6.099l-7.623-7.622h-6.098L163 188.465 13.721 39.187H7.623L0 46.81v6.098L33.093 86 0 119.095h34.433v34.433l33.093-33.094 81.753 81.752-15.594 15.583-10.737-10.737h-6.099l-7.623 7.623v6.098l10.732 10.731zm132.663 75.731c-3.366 6.905-2.667 16.473 1.667 22.816 3.982 6.569 12.405 11.162 20.084 10.953 7.679.209 16.102-4.384 20.084-10.953 4.334-6.343 5.033-15.911 1.667-22.816l.838-.903c6.905 3.384 16.487 2.699 22.84-1.634 6.58-3.978 11.184-12.41 10.973-20.097.211-7.686-4.393-16.118-10.973-20.097-6.353-4.332-15.935-5.018-22.84-1.633l-.838-.903c3.366-6.905 2.667-16.474-1.667-22.816-3.982-6.569-12.405-11.163-20.084-10.953-7.679-.21-16.102 4.384-20.084 10.953-4.334 6.342-5.033 15.911-1.667 22.816l-.838.903c-6.905-3.385-16.488-2.699-22.84 1.633-6.58 3.979-11.184 12.411-10.974 20.097-.21 7.687 4.394 16.119 10.974 20.097 6.352 4.333 15.935 5.018 22.84 1.634zM86.186 344.531c4.334-6.343 5.033-15.911 1.667-22.816l.838-.903c6.905 3.384 16.487 2.699 22.84-1.634 6.579-3.978 11.184-12.41 10.973-20.097.211-7.686-4.394-16.118-10.973-20.097-6.353-4.332-15.935-5.018-22.84-1.633l-.838-.903c3.366-6.905 2.667-16.474-1.667-22.816-3.982-6.569-12.405-11.163-20.084-10.953-7.679-.21-16.102 4.384-20.084 10.953-4.334 6.342-5.033 15.911-1.667 22.816l-.838.903c-6.905-3.385-16.487-2.699-22.84 1.633-6.58 3.979-11.184 12.411-10.974 20.097-.21 7.687 4.394 16.119 10.974 20.097 6.353 4.333 15.935 5.018 22.84 1.634l.838.903c-3.366 6.905-2.667 16.473 1.667 22.816C50 351.1 58.423 355.693 66.102 355.484c7.679.209 16.102-4.384 20.084-10.953" clip-rule="evenodd"/><path fill="#d30" fill-rule="evenodd" d="M162.891 39.186 202.078 0l19.404 19.405v65.41l-53.74 53.74h-9.702l-53.74-53.74v-65.41L123.705 0zm-39.186-25.465 34.335 34.336v63.055l-34.335-34.335zm44.039 34.336 34.335-34.336v63.056l-34.335 34.335z" clip-rule="evenodd"/></svg>
